X:1
T:Title
%%score { ( 1 4 ) | ( 2 3 ) }
L:1/8
Q:1/4=60
M:4/4
K:Eb
V:1 treble nm="Piano, Keyzone Classic 1" snm="Pno."
V:4 treble 
V:2 bass 
V:3 bass 
V:1
 ceee e3 d/e/ | fd c6 | A2 cB d2 cA | G3 A G4 | eggg g3 f/d/ | de e6 | ceee e2 dB | z2 c6 | %8
 faaa a3 b/e/ | efff c2 af | e2 ce B>c AB | F6 af | z z/ z/4 e/4- e/4 z/4 z/ z z4 | z2 F6 |] %14
V:2
 z8 | z8 | z8 | z8 | [G,C]8- | [G,C]8 | z4 B,4 | [F,C]8 | [CF]8 | [B,C]8 | z8 | z8 | %12
 [_D,F,A,]4 [B,,E,G,]4 | z2 [F,,C,F,]6 |] %14
V:3
 x8 | x8 | x8 | x8 | x8 | x8 | [A,C]8 | x8 | z4 B,4 | z4 A,4 | x8 | x8 | x8 | x8 |] %14
V:4
 x8 | x8 | x8 | x8 | x8 | x8 | x8 | Fc z2 A,4 | x8 | x8 | x8 | x8 | e>.f ce B>c AB | z4 z2 A,2 |] %14

